content/images/aiss/researchstream.svg

<svg clip-rule="evenodd" fill-rule="evenodd" stroke-miterlimit="10" viewBox="0 0 208 161" xmlns="http://www.w3.org/2000/svg"><path d="m3.3 3.3h56.2v42.7h-56.2zm56.6 0h72.7v42.7h-72.7z" fill="#d9d9d9"/><path d="m65.2 13.4h62.2v22.6h-62.2zm67.8-10.1h72.8v42.7h-72.8z" fill="#d9d9d9"/><path d="m138.2 13.4h62.4v22.6h-62.4z" fill="#d9d9d9"/><path d="m2.8 2.8h.5v.5h-.5z"/><path d="m2.8 2.8h.5v.5h-.5zm.5 0h56.2v.5h-56.2zm56.2 0h.5v.5h-.5z"/><path d="m59.9 2.8h72.7v.5h-72.7zm72.8 0h.5v.5h-.5z"/><path d="m133 2.8h72.8v.5h-72.8zm72.9 0h.5v.5h-.5z"/><path d="m205.9 2.8h.5v.5h-.5zm-203.1.5h.5v42.7h-.5zm56.7 0h.5v42.7h-.5z"/><path d="m3.4 3.4 56.1 42.6" fill="none" stroke="#000" stroke-width=".48"/><path d="m132.7 3.3h.5v42.7h-.5zm73.2 0h.5v42.7h-.5z"/><path d="m3.3 46.5h56.2v56.5h-56.2z" fill="#d9d9d9"/><path d="m8.3 63.5h46v22.3h-46z" fill="#d9d9d9"/><path d="m2.8 46h.5v.5h-.5zm.5 0h56.2v.5h-56.2zm56.2 0h.5v.5h-.5z"/><path d="m59.9 46h72.7v.5h-72.7zm72.8 0h.5v.5h-.5z"/><path d="m133 46h72.8v.5h-72.8zm72.9 0h.5v.5h-.5zm-203.1.5h.5v56.5h-.5zm56.7 0h.5v56.5h-.5zm73.2 0h.5v56.5h-.5zm73.2 0h.5v56.5h-.5z"/><path d="m3.3 103.6h56.2v56.6h-56.2z" fill="#d9d9d9"/><path d="m8.3 120.9h46v22.3h-46z" fill="#d9d9d9"/><path d="m2.8 103.1h.5v.5h-.5zm.5 0h56.2v.5h-56.2zm56.2 0h.5v.5h-.5z"/><path d="m59.9 103.1h72.7v.5h-72.7zm72.8 0h.5v.5h-.5z"/><path d="m133 103.1h72.8v.5h-72.8zm72.9 0h.5v.5h-.5zm-203.1.5h.5v56.6h-.5zm0 56.6h.5v.5h-.5z"/><path d="m2.8 160.2h.5v.5h-.5zm.5 0h56.2v.5h-56.2zm56.2-56.6h.5v56.6h-.5zm0 56.6h.5v.5h-.5z"/><path d="m59.9 160.2h72.7v.5h-72.7zm72.8-56.6h.5v56.6h-.5zm0 56.6h.5v.5h-.5z"/><path d="m133 160.2h72.8v.5h-72.8zm72.9-56.6h.5v56.6h-.5zm0 56.6h.5v.5h-.5z"/><path d="m205.9 160.2h.5v.5h-.5z"/><g font-family="'TimesNewRomanPSMT','Times New Roman',serif"><g font-size="9.1" transform="translate(-334 -135.2)"><text x="413.6" y="157">Hu<tspan x="424.6 431.6 435.6" y="157 157 157">man</tspan></text><text x="440.1" y="157">ly</text></g><g font-size="9.1" transform="translate(-334 -135.2)"><text x="484.5" y="157">Ra</text><text x="494.5" y="157">tio<tspan x="504" y="157">n</tspan>al<tspan x="515" y="157">l</tspan>y</text></g><text font-size="9.1" transform="translate(-334 -135.2)" x="348.7" y="207.1">Th<tspan x="358.7 361.2 365.7 370.2 372.7" y="207.1 207.1 207.1 207.1 207.1">inkin</tspan>g</text><g font-size="9.1" transform="translate(-334 -135.2)"><text x="412.6" y="202.1">Co<tspan x="423.1" y="202.1">g</tspan>n</text><text x="432" y="202.1">iti<tspan x="439.5" y="202.1">v</tspan>e</text><text x="412.8" y="212.4">M</text><text x="420.8" y="212.4">ode<tspan x="433.8" y="212.4">l</tspan>in<tspan x="443.3" y="212.4">g</tspan></text></g><g font-size="9.1" transform="translate(-351 -130.2)"><text x="486.7" y="202.1">“L<tspan x="496.2 500.1 506.7 510.2 512.4" y="202.1 202.1 202.1 202.1 202.1">aws o</tspan>f</text><text x="522.1" y="202.1">th<tspan x="529.1 533.6 538.1 542.6 547.1" y="202.1 202.1 202.1 202.1 202.1">ought</tspan>“</text></g><g font-size="9.1" transform="translate(-334 -135.2)"><text x="352.9" y="264.5">Ac</text><text x="363.4" y="264.5">tin<tspan x="373" y="264.5">g</tspan></text></g><text font-size="9.1" transform="translate(-334 -135.2)" x="409.2" y="264.5">Tu<tspan x="419.2 422.2 424.7 429.2 433.7" y="264.5 264.5 264.5 264.5 264.5">ring </tspan>Te<tspan x="445.4" y="264.5">s</tspan>t</text><g font-size="9.1" transform="translate(-334 -135.2)"><text x="475.9" y="264.5">Ra</text><text x="485.9" y="264.5">tio<tspan x="495.4" y="264.5">n</tspan>al</text><text x="508.7" y="264.5">Ag<tspan x="519.7 523.7 528.2" y="264.5 264.5 264.5">ent</tspan></text></g><g font-size="7.4" transform="translate(-334 -135.2)"><text x="337.5" y="170.2">Appli<tspan x="354.6" y="170.2">c</tspan>atio<tspan x="369.2" y="170.2">n</tspan></text><text x="352.3" y="178.8">to</text></g><text font-size="7.4" transform="translate(-334 -135.2)" x="361.2" y="150.7">Objec<tspan x="379.1" y="150.7">t</tspan>ive</text></g></svg>

<svg viewBox="0 0 208 161" xmlns="http://www.w3.org/2000/svg" fill-rule="evenodd" clip-rule="evenodd" stroke-miterlimit="10"><path fill="#d9d9d9" d="M3.3 3.3h56.2V46H3.3zM59.9 3.3h72.7V46H59.9z"/><path fill="#d9d9d9" d="M65.2 13.4h62.2V36H65.2zM133 3.3h72.8V46H133z"/><path fill="#d9d9d9" d="M138.2 13.4h62.4V36h-62.4z"/><path d="M2.8 2.8h.5v.5h-.5z"/><path d="M2.8 2.8h.5v.5h-.5zM3.3 2.8h56.2v.5H3.3zM59.5 2.8h.5v.5h-.5z"/><path d="M59.9 2.8h72.7v.5H59.9zM132.7 2.8h.5v.5h-.5z"/><path d="M133 2.8h72.8v.5H133zM205.9 2.8h.5v.5h-.5z"/><path d="M205.9 2.8h.5v.5h-.5zM2.8 3.3h.5V46h-.5zM59.5 3.3h.5V46h-.5z"/><path d="M3.4 3.4L59.5 46" fill="none" stroke="#000" stroke-width=".48"/><path d="M132.7 3.3h.5V46h-.5zM205.9 3.3h.5V46h-.5z"/><path fill="#d9d9d9" d="M3.3 46.5h56.2V103H3.3z"/><path fill="#d9d9d9" d="M8.3 63.5h46v22.3h-46z"/><path d="M2.8 46h.5v.5h-.5zM3.3 46h56.2v.5H3.3zM59.5 46h.5v.5h-.5z"/><path d="M59.9 46h72.7v.5H59.9zM132.7 46h.5v.5h-.5z"/><path d="M133 46h72.8v.5H133zM205.9 46h.5v.5h-.5zM2.8 46.5h.5V103h-.5zM59.5 46.5h.5V103h-.5zM132.7 46.5h.5V103h-.5zM205.9 46.5h.5V103h-.5z"/><path fill="#d9d9d9" d="M3.3 103.6h56.2v56.6H3.3z"/><path fill="#d9d9d9" d="M8.3 120.9h46v22.3h-46z"/><path d="M2.8 103.1h.5v.5h-.5zM3.3 103.1h56.2v.5H3.3zM59.5 103.1h.5v.5h-.5z"/><path d="M59.9 103.1h72.7v.5H59.9zM132.7 103.1h.5v.5h-.5z"/><path d="M133 103.1h72.8v.5H133zM205.9 103.1h.5v.5h-.5zM2.8 103.6h.5v56.6h-.5zM2.8 160.2h.5v.5h-.5z"/><path d="M2.8 160.2h.5v.5h-.5zM3.3 160.2h56.2v.5H3.3zM59.5 103.6h.5v56.6h-.5zM59.5 160.2h.5v.5h-.5z"/><path d="M59.9 160.2h72.7v.5H59.9zM132.7 103.6h.5v56.6h-.5zM132.7 160.2h.5v.5h-.5z"/><path d="M133 160.2h72.8v.5H133zM205.9 103.6h.5v56.6h-.5zM205.9 160.2h.5v.5h-.5z"/><path d="M205.9 160.2h.5v.5h-.5z"/><g font-family="'TimesNewRomanPSMT','Times New Roman',serif" font-size="9.1"><text x="413.6" y="157" transform="translate(-334 -135.2)">Hu<tspan x="424.6 431.6 435.6" y="157 157 157">man</tspan></text><text x="440.1" y="157" transform="translate(-334 -135.2)">ly</text></g><g font-family="'TimesNewRomanPSMT','Times New Roman',serif" font-size="9.1"><text x="484.5" y="157" transform="translate(-334 -135.2)">Ra</text><text x="494.5" y="157" transform="translate(-334 -135.2)">tio<tspan x="504" y="157">n</tspan>al<tspan x="515" y="157">l</tspan>y</text></g><text x="348.7" y="207.1" font-family="'TimesNewRomanPSMT','Times New Roman',serif" font-size="9.1" transform="translate(-334 -135.2)">Th<tspan x="358.7 361.2 365.7 370.2 372.7" y="207.1 207.1 207.1 207.1 207.1">inkin</tspan>g</text><g font-family="'TimesNewRomanPSMT','Times New Roman',serif" font-size="9.1"><text x="412.6" y="202.1" transform="translate(-334 -135.2)">Co<tspan x="423.1" y="202.1">g</tspan>n</text><text x="432" y="202.1" transform="translate(-334 -135.2)">iti<tspan x="439.5" y="202.1">v</tspan>e</text><text x="412.8" y="212.4" transform="translate(-334 -135.2)">M</text><text x="420.8" y="212.4" transform="translate(-334 -135.2)">ode<tspan x="433.8" y="212.4">l</tspan>in<tspan x="443.3" y="212.4">g</tspan></text></g><g font-family="'TimesNewRomanPSMT','Times New Roman',serif" font-size="9.1"><text x="486.7" y="202.1" transform="translate(-351 -130.2)">“L<tspan x="496.2 500.1 506.7 510.2 512.4" y="202.1 202.1 202.1 202.1 202.1">aws o</tspan>f</text><text x="522.1" y="202.1" transform="translate(-351 -130.2)">th<tspan x="529.1 533.6 538.1 542.6 547.1" y="202.1 202.1 202.1 202.1 202.1">ought</tspan>“</text></g><g font-family="'TimesNewRomanPSMT','Times New Roman',serif" font-size="9.1"><text x="352.9" y="264.5" transform="translate(-334 -135.2)">Ac</text><text x="363.4" y="264.5" transform="translate(-334 -135.2)">tin<tspan x="373" y="264.5">g</tspan></text></g><text x="409.2" y="264.5" font-family="'TimesNewRomanPSMT','Times New Roman',serif" font-size="9.1" transform="translate(-334 -135.2)">Tu<tspan x="419.2 422.2 424.7 429.2 433.7" y="264.5 264.5 264.5 264.5 264.5">ring </tspan>Te<tspan x="445.4" y="264.5">s</tspan>t</text><g font-family="'TimesNewRomanPSMT','Times New Roman',serif" font-size="9.1"><text x="475.9" y="264.5" transform="translate(-334 -135.2)">Ra</text><text x="485.9" y="264.5" transform="translate(-334 -135.2)">tio<tspan x="495.4" y="264.5">n</tspan>al</text><text x="508.7" y="264.5" transform="translate(-334 -135.2)">Ag<tspan x="519.7 523.7 528.2" y="264.5 264.5 264.5">ent</tspan></text></g><g font-family="'TimesNewRomanPSMT','Times New Roman',serif" font-size="7.4"><text x="337.5" y="170.2" transform="translate(-334 -135.2)">Appli<tspan x="354.6" y="170.2">c</tspan>atio<tspan x="369.2" y="170.2">n</tspan></text><text x="352.3" y="178.8" transform="translate(-334 -135.2)">to</text></g><text x="361.2" y="150.7" font-family="'TimesNewRomanPSMT','Times New Roman',serif" font-size="7.4" transform="translate(-334 -135.2)">Objec<tspan x="379.1" y="150.7">t</tspan>ive</text></svg>
